X:1
T: The Green Mountain Boys
C:
R:Jig
Q:180
K:C
M:6/8
L:1/16
d2|c2G2F2 E2F2D2|C2E2G2 c4G2|A2a2g2 e2f2d2|c2e2c2 d2B2G2|c2G2F2 E2F2D2|C2E2G2 c4G2|A2a2g2 e2f2d2|e2c2c2 c4d2|
c2G2F2 E2F2D2|C2E2G2 c4G2|A2a2g2 e2f2d2|c2e2c2 d2B2G2|c2G2F2 E2F2D2|C2E2G2 c4G2|A2a2g2 e2f2d2|e2c2c2 c2f2a2|
g2e2c2 G2c2e2|f2d2B2 G2e2f2|e2c2G2 E2G2c2|d2B2G2 G2e2f2|g2e2c2 G2c2e2|f2d2B2 G2e2f2|e2d2c2 G2c2B2|c6 c2e2f2|
g2e2c2 G2c2e2|f2d2B2 G2e2f2|e2c2G2 E2G2c2|d2B2G2 G2A2B2|c2G2F2 E2F2D2|C2E2G2 c4G2|A2a2g2 e2f2d2|e2c2c2 c4||
